icons/crop-2-line.svg

<svg viewBox="0 0 24 24" fill="currentColor" xmlns="http://www.w3.org/2000/svg">
    <path d="M8.41421 17H15V19H6C5.44772 19 5 18.5523 5 18V7H2V5H5V2H7V15.5858L15.5858 7H9V5H17.5858L20.1421 2.44365L21.5563 3.85786L19 6.41421V17H22V19H19V22H17V8.41421L8.41421 17Z"/>
</svg>

<svg xmlns="http://www.w3.org/2000/svg" viewBox="0 0 24 24">
    <g>
        <path fill="none" d="M0 0h24v24H0z"/>
        <path d="M8.414 17H15v2H6a1 1 0 0 1-1-1V7H2V5h3V2h2v13.586L15.586 7H9V5h8.586l2.556-2.556 1.414 1.414L19 6.414V17h3v2h-3v3h-2V8.414L8.414 17z"/>
    </g>
</svg>
